usr/share/icons/biglinux-icons-material/scalable/apps/bomber.svg

<svg width="24" height="24" viewBox="0 0 24 24" fill="none" xmlns="http://www.w3.org/2000/svg">
<path fill-rule="evenodd" clip-rule="evenodd" d="M9.59604 1.11359C9.71588 1.11486 9.83043 1.0996 9.93969 1.06779C11.3755 0.973736 12.8111 0.977551 14.2467 1.07924C15.5484 1.18066 16.8085 1.46308 18.0269 1.9265C20.0525 2.76044 21.4386 4.20689 22.185 6.26585C22.6119 7.50549 22.8639 8.78021 22.9411 10.09C23.0478 11.7347 23.0096 13.3758 22.8265 15.0133C22.6895 16.1642 22.3916 17.271 21.933 18.3336C21.0824 20.1761 19.704 21.447 17.7978 22.1463C16.2531 22.6682 14.6647 22.943 13.0325 22.9706C11.1966 23.0661 9.37913 22.9287 7.57997 22.5585C4.26839 21.8208 2.22559 19.8018 1.45158 16.5017C1.12311 15.0161 0.974199 13.5124 1.00483 11.9906C0.968176 10.3724 1.14 8.77709 1.52031 7.20471C2.33171 4.11908 4.2905 2.20701 7.39669 1.46852C8.12048 1.29157 8.8536 1.17326 9.59604 1.11359Z" fill="url(#paint0_radial_1_50)"/>
<path d="M8.04077 6.44239C8.04077 6.44239 10.0418 9.24344 9.72179 9.41944C9.34079 9.62944 9.01078 9.91078 8.73844 10.1628C7.57609 10.1598 7.11142 10.1598 7.11142 10.1598V13.4125L8.73878 13.4142C8.73878 13.4142 11.2688 14.1265 13.1285 14.3439C13.5012 14.3872 7.11142 17.5946 7.11142 17.5946C8.70444 17.5949 22.5177 14.2145 21.985 11.0501C20.7616 9.17777 16.4262 8.38209 16.4262 8.38209C16.4262 8.38209 15.4129 8.30475 14.8825 8.30475C13.8145 8.30475 12.8328 8.41276 11.9628 8.60676C11.3395 8.12508 8.04077 6.44239 8.04077 6.44239Z" fill="#CBCED1"/>
<path fill-rule="evenodd" clip-rule="evenodd" d="M4.97371 9.69511C4.60004 10.2551 4.90471 10.4991 5.29972 10.5451C4.83505 10.7215 4.52537 10.2741 4.16237 10.1675C3.93503 10.1005 3.39402 10.4018 2.92902 10.1598C3.09802 10.6245 3.76636 10.2875 3.9937 10.4991C4.10137 10.5995 4.51971 11.0748 4.22437 11.4541C3.9287 11.8335 3.63869 11.1368 3.17069 11.0891C2.95002 11.0668 2.45334 11.4485 2 11.2568C2.46467 11.7341 2.64968 11.5231 2.96335 11.8018C3.27769 12.0805 3.60336 12.5135 3.25435 12.9185C3.03468 13.1728 2.40201 13.1272 2.46434 13.4125C2.56968 13.2538 3.36169 13.4058 3.64303 13.1925C4.56538 12.6178 5.09638 13.1718 4.57971 13.5398C4.42771 13.6408 4.1897 13.4892 3.92636 13.5148C3.48636 13.5582 3.00235 13.7492 2.92668 13.8972C3.07502 13.8538 3.43869 13.8055 3.81303 13.9422C4.13703 14.0605 4.46537 14.3662 4.71304 14.3422C5.70306 14.2452 5.9834 13.1282 7.11142 13.8772V9.69511C6.93675 9.77044 6.76774 9.97945 6.08373 10.0935C5.39972 10.2075 4.89505 10.2351 4.97371 9.69511Z" fill="#EA7D46"/>
<path d="M8.50544 10.1598V9.69511H6.64674V13.8772H8.50544V13.4125C11.2935 13.4125 13.1748 12.3712 13.1522 11.7861C13.1298 11.2095 11.2935 10.1598 8.50544 10.1598ZM16.4142 8.38109C16.3533 8.79628 16.6458 9.28116 17.2313 9.73564C17.8169 10.1901 18.6508 10.5795 19.561 10.8235C20.4136 11.0514 21.2737 11.1357 21.9843 11.0611C21.8953 10.4985 21.357 9.94278 20.2143 9.41377C19.2366 8.90243 17.9143 8.53276 16.4142 8.38109Z" fill="#373A3D"/>
<defs>
<radialGradient id="paint0_radial_1_50" cx="0" cy="0" r="1" gradientUnits="userSpaceOnUse" gradientTransform="translate(12 1) rotate(90) scale(11)">
<stop stop-color="#6EBBF7"/>
<stop offset="1" stop-color="#2196F3"/>
</radialGradient>
</defs>
</svg>

<svg xmlns="http://www.w3.org/2000/svg" width="24" height="24" fill="none"><path fill="url(#a)" fill-rule="evenodd" d="M9.596 1.114c.12 0 .234-.014.344-.046a31.627 31.627 0 0 1 4.307.011c1.301.102 2.561.384 3.78.848 2.025.833 3.412 2.28 4.158 4.339.427 1.24.679 2.514.756 3.824a27.94 27.94 0 0 1-.114 4.923 11.88 11.88 0 0 1-.894 3.32c-.85 1.843-2.229 3.114-4.135 3.813a15.624 15.624 0 0 1-4.765.825 21.423 21.423 0 0 1-5.453-.413c-3.312-.737-5.354-2.756-6.128-6.056a19.047 19.047 0 0 1-.447-4.511 18.491 18.491 0 0 1 .515-4.786c.812-3.086 2.77-4.998 5.877-5.736a13.953 13.953 0 0 1 2.199-.355Z" clip-rule="evenodd"/><path fill="#CBCED1" d="M8.04 6.442s2.002 2.801 1.682 2.977c-.381.21-.711.492-.984.744l-1.627-.003v3.252l1.628.002s2.53.713 4.39.93c.372.043-6.018 3.25-6.018 3.25 1.593 0 15.407-3.38 14.874-6.544-1.223-1.872-5.559-2.668-5.559-2.668s-1.013-.077-1.543-.077c-1.068 0-2.05.108-2.92.302-.623-.482-3.922-2.165-3.922-2.165Z"/><path fill="#EA7D46" fill-rule="evenodd" d="M4.974 9.695c-.374.56-.07.804.326.85-.465.177-.775-.27-1.138-.377-.227-.067-.768.234-1.233-.008.169.464.837.127 1.065.34.107.1.526.575.23.954-.295.38-.585-.317-1.053-.365-.221-.022-.718.36-1.171.168.465.477.65.266.963.545.315.279.64.712.291 1.117-.22.254-.852.208-.79.493.106-.158.898-.006 1.179-.22.922-.574 1.453-.02.937.348-.152.1-.39-.05-.654-.025-.44.043-.924.234-1 .382.149-.043.513-.091.887.045.324.118.652.424.9.4.99-.097 1.27-1.214 2.398-.465V9.695c-.174.075-.343.284-1.027.399-.684.114-1.189.141-1.11-.399Z" clip-rule="evenodd"/><path fill="#373A3D" d="M8.505 10.16v-.465H6.647v4.182h1.858v-.465c2.788 0 4.67-1.04 4.647-1.626-.022-.576-1.858-1.626-4.647-1.626Zm7.91-1.779c-.062.415.23.9.816 1.355.586.454 1.42.843 2.33 1.087.853.228 1.713.313 2.423.238-.089-.563-.627-1.118-1.77-1.647-.977-.512-2.3-.881-3.8-1.033Z"/><defs><radialGradient id="a" cx="0" cy="0" r="1" gradientTransform="matrix(0 11 -11 0 12 1)" gradientUnits="userSpaceOnUse"><stop stop-color="#6EBBF7"/><stop offset="1" stop-color="#2196F3"/></radialGradient></defs></svg>
